tellnet/images/service-images/cartridge-img.svg

<svg width="80" height="80" viewBox="0 0 80 80" fill="none" xmlns="http://www.w3.org/2000/svg">
<path d="M77.3926 25.7938C80.4183 33.7584 80.8219 42.481 78.5446 50.6909C76.2673 58.9008 71.4281 66.1691 64.7319 71.437C58.0357 76.7048 49.8324 79.697 41.3171 79.9775C32.8018 80.2581 24.4194 77.8123 17.391 72.9967C10.3626 68.181 5.05544 61.247 2.24269 53.2047C-0.570063 45.1625 -0.741443 36.4323 1.75349 28.2858C4.24841 20.1394 9.2793 13.0024 16.1133 7.91457C22.9472 2.82674 31.2272 0.0539029 39.747 7.53891e-06C39.806 -0.00033452 39.8646 0.0109667 39.9193 0.0332581C39.974 0.0555496 40.0238 0.0883965 40.0658 0.129928C40.1078 0.171459 40.1413 0.220858 40.1642 0.275306C40.1871 0.329755 40.1991 0.388187 40.1994 0.447264C40.1998 0.50634 40.1885 0.564909 40.1662 0.619619C40.1439 0.674329 40.111 0.724101 40.0695 0.766116C40.028 0.808131 39.9786 0.841558 39.9241 0.864481C39.8697 0.887405 39.8112 0.899381 39.7522 0.899723C31.4121 0.946057 23.3048 3.65499 16.612 8.63164C9.91933 13.6083 4.99108 20.5925 2.54568 28.5662C0.100277 36.5398 0.26556 45.0862 3.01745 52.9593C5.76933 60.8325 10.964 67.6209 17.8441 72.335C24.7242 77.0492 32.9302 79.4426 41.2659 79.1664C49.6015 78.8902 57.6311 75.9589 64.1841 70.7997C70.7371 65.6404 75.471 58.5231 77.6957 50.485C79.9204 42.447 79.5197 33.9085 76.5518 26.1141C76.5098 26.0027 76.5137 25.8792 76.5625 25.7707C76.6114 25.6621 76.7013 25.5774 76.8126 25.535C76.9238 25.4926 77.0473 25.4961 77.1561 25.5446C77.2648 25.5931 77.3498 25.6827 77.3926 25.7938L77.3926 25.7938Z" fill="white"/>
<path d="M75.3427 26.6847C78.0101 33.764 78.477 41.4839 76.6822 48.8331C74.8875 56.1823 70.9147 62.818 65.2845 67.8709C65.1954 67.9502 65.0784 67.9909 64.9593 67.984C64.8402 67.9771 64.7287 67.9231 64.6494 67.834C64.5701 67.7449 64.5294 67.628 64.5363 67.5089C64.5432 67.3898 64.5972 67.2783 64.6863 67.199C69.6494 62.7812 73.3103 57.0905 75.273 50.7425C77.2357 44.3945 77.4255 37.6306 75.8218 31.1825C74.2182 24.7344 70.8822 18.8474 66.1746 14.1583C61.467 9.46914 55.567 6.15627 49.1126 4.57798C42.6583 2.99968 35.8952 3.21603 29.5549 5.20363C23.2146 7.19123 17.5384 10.8744 13.1402 15.8549C8.74188 20.8353 5.78896 26.9235 4.60074 33.4609C3.41252 39.9983 4.03423 46.7362 6.39863 52.9458C6.4411 53.0573 6.43755 53.1811 6.38875 53.29C6.33994 53.3988 6.24989 53.4839 6.13839 53.5263C6.0269 53.5688 5.90309 53.5653 5.79422 53.5164C5.68534 53.4676 5.60031 53.3776 5.55784 53.2661C2.03293 44.012 2.32857 33.7368 6.37969 24.7007C10.4308 15.6646 17.9056 8.6079 27.1596 5.083C36.4136 1.55809 46.6889 1.8537 55.725 5.90482C64.7611 9.95593 71.8178 17.4307 75.3427 26.6847V26.6847Z" fill="white"/>
<path d="M26.3792 38.899C25.9343 38.899 25.4994 38.767 25.1295 38.5199C24.7596 38.2727 24.4713 37.9215 24.3011 37.5104C24.1309 37.0994 24.0863 36.6472 24.1731 36.2109C24.2599 35.7745 24.4741 35.3738 24.7887 35.0592C25.1033 34.7446 25.504 34.5304 25.9404 34.4436C26.3767 34.3568 26.8289 34.4014 27.24 34.5716C27.651 34.7419 28.0022 35.0301 28.2494 35.4C28.4965 35.7699 28.6285 36.2048 28.6285 36.6497C28.6278 37.246 28.3906 37.8177 27.9689 38.2394C27.5472 38.6611 26.9755 38.8983 26.3792 38.899ZM26.3792 35.3001C26.1123 35.3001 25.8513 35.3793 25.6294 35.5275C25.4075 35.6758 25.2345 35.8866 25.1323 36.1332C25.0302 36.3798 25.0035 36.6512 25.0555 36.913C25.1076 37.1748 25.2361 37.4152 25.4249 37.604C25.6136 37.7927 25.8541 37.9212 26.1159 37.9733C26.3777 38.0254 26.649 37.9987 26.8956 37.8965C27.1422 37.7944 27.353 37.6214 27.5013 37.3995C27.6496 37.1775 27.7287 36.9166 27.7287 36.6497C27.7284 36.2919 27.586 35.9488 27.333 35.6958C27.08 35.4428 26.737 35.3005 26.3792 35.3001Z" fill="white"/>
<path d="M60.5686 51.4947H54.2706C54.1513 51.4947 54.0368 51.4473 53.9525 51.363C53.8681 51.2786 53.8207 51.1642 53.8207 51.0449C53.8207 50.9256 53.8681 50.8111 53.9525 50.7268C54.0368 50.6424 54.1513 50.595 54.2706 50.595H60.1187V34.85C60.1177 34.0151 59.7856 33.2148 59.1953 32.6244C58.6049 32.0341 57.8046 31.702 56.9697 31.701H24.58C23.7451 31.702 22.9447 32.0341 22.3544 32.6244C21.7641 33.2148 21.432 34.0151 21.431 34.85V50.595H27.2791C27.3984 50.595 27.5128 50.6424 27.5972 50.7268C27.6816 50.8111 27.729 50.9256 27.729 51.0449C27.729 51.1642 27.6816 51.2786 27.5972 51.363C27.5128 51.4473 27.3984 51.4947 27.2791 51.4947H20.9811C20.922 51.4948 20.8635 51.4831 20.8089 51.4605C20.7543 51.438 20.7047 51.4048 20.6629 51.363C20.6212 51.3213 20.588 51.2717 20.5654 51.2171C20.5428 51.1625 20.5312 51.1039 20.5313 51.0449V34.85C20.5324 33.7766 20.9594 32.7474 21.7184 31.9884C22.4774 31.2294 23.5065 30.8024 24.58 30.8013H56.9697C58.0431 30.8024 59.0723 31.2294 59.8313 31.9884C60.5903 32.7474 61.0173 33.7766 61.0184 34.85V51.0449C61.0185 51.1039 61.0068 51.1625 60.9842 51.2171C60.9617 51.2717 60.9285 51.3213 60.8867 51.363C60.845 51.4048 60.7954 51.438 60.7408 51.4605C60.6862 51.4831 60.6277 51.4948 60.5686 51.4947Z" fill="white"/>
<path d="M54.2704 60.4919H27.279C27.2199 60.4919 27.1614 60.4803 27.1068 60.4577C27.0522 60.4351 27.0026 60.402 26.9608 60.3602C26.919 60.3184 26.8859 60.2688 26.8633 60.2142C26.8407 60.1596 26.8291 60.1011 26.8291 60.042V42.9474C26.8291 42.8883 26.8407 42.8298 26.8633 42.7752C26.8859 42.7206 26.919 42.671 26.9608 42.6292C27.0026 42.5875 27.0522 42.5543 27.1068 42.5317C27.1614 42.5091 27.2199 42.4975 27.279 42.4976H54.2704C54.3295 42.4975 54.388 42.5091 54.4426 42.5317C54.4972 42.5543 54.5468 42.5875 54.5886 42.6292C54.6304 42.671 54.6635 42.7206 54.6861 42.7752C54.7087 42.8298 54.7203 42.8883 54.7203 42.9474V60.042C54.7203 60.1011 54.7087 60.1596 54.6861 60.2142C54.6635 60.2688 54.6304 60.3184 54.5886 60.3602C54.5468 60.402 54.4972 60.4351 54.4426 60.4577C54.388 60.4803 54.3295 60.4919 54.2704 60.4919ZM27.7288 59.5921H53.8206V43.3973H27.7288V59.5921Z" fill="white"/>
<path d="M54.2704 30.8012C54.2113 30.8012 54.1528 30.7896 54.0982 30.767C54.0436 30.7444 53.994 30.7113 53.9522 30.6695C53.9105 30.6277 53.8773 30.5781 53.8547 30.5235C53.8321 30.4689 53.8205 30.4104 53.8206 30.3513V21.804H27.7288V30.3513C27.7288 30.4706 27.6814 30.585 27.5971 30.6694C27.5127 30.7538 27.3983 30.8012 27.279 30.8012C27.1596 30.8012 27.0452 30.7538 26.9609 30.6694C26.8765 30.585 26.8291 30.4706 26.8291 30.3513V21.3542C26.8291 21.2951 26.8407 21.2366 26.8633 21.182C26.8859 21.1274 26.919 21.0778 26.9608 21.036C27.0026 20.9942 27.0522 20.9611 27.1068 20.9385C27.1614 20.9159 27.2199 20.9043 27.279 20.9043H54.2704C54.3295 20.9043 54.388 20.9159 54.4426 20.9385C54.4972 20.9611 54.5468 20.9942 54.5886 21.036C54.6304 21.0778 54.6635 21.1274 54.6861 21.182C54.7087 21.2366 54.7203 21.2951 54.7203 21.3542V30.3513C54.7203 30.4104 54.7087 30.4689 54.6861 30.5235C54.6635 30.5781 54.6304 30.6277 54.5886 30.6695C54.5468 30.7113 54.4972 30.7444 54.4426 30.767C54.388 30.7896 54.3295 30.8012 54.2704 30.8012Z" fill="white"/>
<path d="M56.9697 43.3973H25.4796C25.3603 43.3973 25.2459 43.3499 25.1616 43.2655C25.0772 43.1811 25.0298 43.0667 25.0298 42.9474C25.0298 42.8281 25.0772 42.7137 25.1616 42.6293C25.2459 42.545 25.3603 42.4976 25.4796 42.4976H56.9697C57.089 42.4976 57.2034 42.545 57.2878 42.6293C57.3721 42.7137 57.4195 42.8281 57.4195 42.9474C57.4195 43.0667 57.3721 43.1811 57.2878 43.2655C57.2034 43.3499 57.089 43.3973 56.9697 43.3973Z" fill="white"/>
<path d="M48.8724 46.9961H31.7778V47.8958H48.8724V46.9961Z" fill="white"/>
<path d="M48.8724 50.5952H31.7778V51.4949H48.8724V50.5952Z" fill="white"/>
<path d="M48.8724 54.1938H31.7778V55.0936H48.8724V54.1938Z" fill="white"/>
</svg>

<?xml version="1.0" encoding="UTF-8" standalone="no"?>
<svg width="80" xmlns="http://www.w3.org/2000/svg" viewBox="0 0 80 80" height="80">
 <path d="m77.393 25.794c3.025 7.964 3.429 16.687 1.152 24.897-2.278 8.21-7.117 15.478-13.813 20.746s-14.9 8.26-23.415 8.541c-8.515 0.28-16.898-2.166-23.926-6.981-7.028-4.816-12.336-11.75-15.148-19.792-2.8131-8.043-2.9844-16.773-0.4895-24.919 2.4949-8.147 7.5258-15.284 14.36-20.371 6.833-5.0883 15.113-7.8611 23.633-7.915 0.059-0.00033452 0.118 0.010967 0.172 0.033258 0.055 0.022292 0.105 0.055138 0.147 0.096672 0.042 0.04153 0.075 0.09093 0.098 0.14538s0.035 0.11288 0.035 0.17195c0.001 0.05908-0.011 0.11765-0.033 0.17236s-0.055 0.10448-0.096 0.1465c-0.042 0.04201-0.091 0.07544-0.146 0.09836-0.054 0.02292-0.113 0.0349-0.172 0.03524-8.34 0.04634-16.447 2.7553-23.14 7.7319-6.6927 4.9764-11.621 11.96-14.066 19.934-2.4457 7.974-2.2804 16.52 0.4714 24.393 2.7519 7.873 7.9466 14.662 14.827 19.376 6.88 4.714 15.086 7.108 23.422 6.831 8.336-0.276 16.365-3.207 22.918-8.366 6.553-5.16 11.287-12.277 13.512-20.315 2.224-8.038 1.824-16.577-1.144-24.371-0.042-0.111-0.038-0.235 0.01-0.343 0.049-0.109 0.139-0.194 0.251-0.236 0.111-0.042 0.234-0.039 0.343 0.01 0.109 0.048 0.194 0.138 0.237 0.249z" fill="#fff"/>
 <path d="m75.343 26.685c2.667 7.079 3.134 14.799 1.339 22.148-1.794 7.349-5.767 13.985-11.398 19.038-0.089 0.079-0.206 0.12-0.325 0.113s-0.23-0.061-0.31-0.15c-0.079-0.089-0.12-0.206-0.113-0.325s0.061-0.231 0.15-0.31c4.963-4.418 8.624-10.109 10.587-16.457s2.153-13.111 0.549-19.56c-1.604-6.448-4.94-12.335-9.647-17.024-4.708-4.6889-10.608-8.0017-17.062-9.58-6.455-1.5783-13.218-1.362-19.558 0.6256s-12.017 5.6704-16.415 10.651c-4.3981 4.98-7.351 11.069-8.5393 17.606-1.1882 6.537-0.5665 13.275 1.7979 19.485 0.0425 0.111 0.039 0.235-0.0098 0.344-0.0489 0.109-0.1389 0.194-0.2504 0.236-0.1115 0.043-0.2353 0.039-0.3442-0.01-0.1089-0.048-0.1939-0.138-0.2364-0.25-3.5249-9.254-3.2292-19.529 0.8219-28.565 4.0513-9.036 11.526-16.093 20.78-19.618 9.254-3.5249 19.529-3.2293 28.565 0.8218s16.093 11.526 19.618 20.78z" fill="#fff"/>
 <path d="m26.379 38.899c-0.445 0-0.88-0.132-1.249-0.379-0.37-0.247-0.659-0.598-0.829-1.01-0.17-0.411-0.215-0.863-0.128-1.299 0.087-0.437 0.301-0.837 0.616-1.152 0.314-0.314 0.715-0.529 1.151-0.615 0.437-0.087 0.889-0.043 1.3 0.128 0.411 0.17 0.762 0.458 1.009 0.828s0.379 0.805 0.379 1.25c0 0.596-0.237 1.168-0.659 1.589-0.422 0.422-0.993 0.659-1.59 0.66zm0-3.599c-0.267 0-0.528 0.079-0.75 0.228-0.221 0.148-0.395 0.359-0.497 0.605-0.102 0.247-0.128 0.518-0.076 0.78s0.18 0.502 0.369 0.691 0.429 0.317 0.691 0.369 0.533 0.026 0.78-0.077c0.246-0.102 0.457-0.275 0.605-0.496 0.149-0.222 0.228-0.483 0.228-0.75-0.001-0.358-0.143-0.701-0.396-0.954s-0.596-0.396-0.954-0.396z" fill="#fff"/>
 <path d="m60.569 51.495h-6.298c-0.12 0-0.234-0.048-0.319-0.132-0.084-0.084-0.131-0.199-0.131-0.318s0.047-0.234 0.131-0.318c0.085-0.085 0.199-0.132 0.319-0.132h5.848v-15.745c-0.001-0.835-0.333-1.635-0.924-2.226-0.59-0.59-1.39-0.922-2.225-0.923h-32.39c-0.835 0.001-1.635 0.333-2.226 0.923-0.59 0.591-0.922 1.391-0.923 2.226v15.745h5.848c0.119 0 0.234 0.047 0.318 0.132 0.085 0.084 0.132 0.199 0.132 0.318s-0.047 0.234-0.132 0.318c-0.084 0.084-0.199 0.132-0.318 0.132h-6.298c-0.059 0-0.117-0.012-0.172-0.035-0.055-0.022-0.104-0.055-0.146-0.097s-0.075-0.091-0.098-0.146c-0.022-0.055-0.034-0.113-0.034-0.172v-16.195c0.001-1.073 0.428-2.103 1.187-2.862s1.788-1.186 2.862-1.187h32.39c1.073 0.001 2.102 0.428 2.861 1.187s1.186 1.789 1.187 2.862v16.195c0 0.059-0.011 0.117-0.034 0.172-0.022 0.055-0.056 0.104-0.097 0.146-0.042 0.042-0.092 0.075-0.146 0.097-0.055 0.023-0.113 0.035-0.172 0.035z" fill="#fff"/>
 <path d="m54.27 60.492h-26.991c-0.059 0-0.118-0.012-0.172-0.034-0.055-0.023-0.104-0.056-0.146-0.098s-0.075-0.091-0.098-0.146c-0.022-0.054-0.034-0.113-0.034-0.172v-17.095c0-0.059 0.012-0.117 0.034-0.172 0.023-0.054 0.056-0.104 0.098-0.146 0.042-0.041 0.091-0.075 0.146-0.097 0.054-0.023 0.113-0.034 0.172-0.034h26.991c0.06 0 0.118 0.011 0.173 0.034 0.054 0.022 0.104 0.056 0.146 0.097 0.041 0.042 0.075 0.092 0.097 0.146 0.023 0.055 0.034 0.113 0.034 0.172v17.095c0 0.059-0.011 0.118-0.034 0.172-0.022 0.055-0.056 0.104-0.097 0.146-0.042 0.042-0.092 0.075-0.146 0.098-0.055 0.022-0.113 0.034-0.173 0.034zm-26.541-0.9h26.092v-16.195h-26.092v16.195z" fill="#fff"/>
 <path d="m54.27 30.801c-0.059 0-0.117-0.011-0.172-0.034-0.054-0.023-0.104-0.056-0.146-0.097-0.042-0.042-0.075-0.092-0.097-0.146-0.023-0.055-0.035-0.114-0.034-0.173v-8.547h-26.092v8.547c0 0.12-0.048 0.234-0.132 0.318-0.084 0.085-0.199 0.132-0.318 0.132s-0.234-0.047-0.318-0.132c-0.085-0.084-0.132-0.198-0.132-0.318v-8.997c0-0.059 0.012-0.117 0.034-0.172 0.023-0.055 0.056-0.104 0.098-0.146s0.091-0.075 0.146-0.098c0.054-0.022 0.113-0.034 0.172-0.034h26.991c0.06 0 0.118 0.012 0.173 0.034 0.054 0.023 0.104 0.056 0.146 0.098 0.041 0.042 0.075 0.091 0.097 0.146 0.023 0.055 0.034 0.113 0.034 0.172v8.997c0 0.059-0.011 0.118-0.034 0.173-0.022 0.054-0.056 0.104-0.097 0.146-0.042 0.041-0.092 0.074-0.146 0.097-0.055 0.023-0.113 0.034-0.173 0.034z" fill="#fff"/>
 <path d="m56.97 43.397h-31.49c-0.12 0-0.234-0.047-0.318-0.131-0.085-0.085-0.132-0.199-0.132-0.319 0-0.119 0.047-0.233 0.132-0.318 0.084-0.084 0.198-0.131 0.318-0.131h31.49c0.119 0 0.233 0.047 0.318 0.131 0.084 0.085 0.132 0.199 0.132 0.318 0 0.12-0.048 0.234-0.132 0.319-0.085 0.084-0.199 0.131-0.318 0.131z" fill="#fff"/>
 <path d="m48.872 46.996h-17.094v0.9h17.094v-0.9z" fill="#fff"/>
 <path d="m48.872 50.595h-17.094v0.9h17.094v-0.9z" fill="#fff"/>
 <path d="m48.872 54.194h-17.094v0.9h17.094v-0.9z" fill="#fff"/>
</svg>
